X:162 
T:Paddy O'Brien's Reel 
F:file ID: cre.5/162paddy_ob
N:This is the Offaly PO'B, not the Tipperary one! There's
probably a "real" name for this but I don't know what it is.
B:CRE5.184 (Ril PhÃÂÃÂÃÂÃÂ¡idi Uihriain)
M:4/4
Q:180
R:reel
K:G
"D modal"
dB|AD (3FED DEFG|AGAB cBcd|ed~d2 Ad~d2|cAGE FDD2|
AD (3FED DEFG|AGAB cBcd|ed~d2 eaag|fde^c dABc||
d2ed fded|AGAB cBcd|ed~d2 Ad~d2|eaag fde^c|
d2ed fded|AGAB cBcd|eaag efga|fdec d4|]

%%%

